X:1072
T:Walk Out of It Hogan
R:double jig
N:"collected by F.O'Neill"
B:O'Neill's 1072
Z:Transcribed by henrik.norbeck@mailbox.swipnet.se
M:6/8
L:1/8
K:G
~G3 AGE|B2A AGE|~G3 AGE|GAB GED|
~G3 AGE|GAB cde|dBG AGE|GAB GED||
BGG AGG|BGG AGE|BGG AGE|GAG GED|
BGG cAA|dBB cAA|BGG AGE|GAB GED||
dge dBG|ABA ABd|e/f/ge dBG|Bgf g2a|
bag agf|gfe dcB|dcBA BAG|AGE GFED||
G2d BGd|BGd AGE|G2d BGd|AFd FED|
G2d BGd|BGd ABc|BAG AGE|GAB GED||
D/E/F.D D/E/F.D|A23c/B/A/ BGE|D/E/F.D D/E/F.D|G23A/G/F/ GFE|
D/E/F.D D/E/F.D|ABA ABc|BAG BAGE|GAB GED||
